images/badge-solid-colored.svg

<svg height="88" viewBox="0 0 88 88" width="88" xmlns="http://www.w3.org/2000/svg" xmlns:xlink="http://www.w3.org/1999/xlink"><linearGradient id="a" x1="15.635335%" x2="103.779554%" y1="11.857439%" y2="105.033593%"><stop offset="0" stop-color="#ff5274"/><stop offset="1" stop-color="#6446fa"/></linearGradient><path d="m575 314c-24.300529 0-44-19.699471-44-44s19.699471-44 44-44 44 19.699471 44 44-19.699471 44-44 44zm-9.04442-29.25h-5.888913c-2.061863 0-3.733334-1.645354-3.733334-3.675s1.671471-3.675 3.733334-3.675h16.37853l5.014484 7.318093 1.319188 1.833639c1.811245 2.212847 4.382673 3.448268 7.154464 3.448268 5.007382 0 9.066667-3.995859 9.066667-8.925s-4.059285-8.925-9.066667-8.925h-10.652915l-2.158336-3.15h12.811251c5.007382 0 9.066667-3.995859 9.066667-8.925s-4.059285-8.925-9.066667-8.925h-5.43969c-.971046-1.86988-2.947144-3.15-5.226976-3.15-3.240071 0-5.866667 2.585556-5.866667 5.775s2.626596 5.775 5.866667 5.775c2.279832 0 4.25593-1.28012 5.226976-3.15h5.43969c2.061863 0 3.733334 1.645354 3.733334 3.675s-1.671471 3.675-3.733334 3.675h-16.408477l-4.766178-6.956036c-1.040179-1.496226-1.481703-2.126735-1.596615-2.27452-1.761891-2.265903-4.191936-3.369444-7.095396-3.369444-5.007382 0-9.066667 3.995859-9.066667 8.925s4.059285 8.925 9.066667 8.925h10.622704l2.158434 3.15h-12.781138c-5.007382 0-9.066667 3.995859-9.066667 8.925s4.059285 8.925 9.066667 8.925h5.274744c.823673 2.330385 3.046151 4 5.658589 4 3.313708 0 6-2.686292 6-6s-2.686292-6-6-6c-2.116006 0-3.976175 1.095363-5.04442 2.75zm19.890589-3.017563-2.968525-4.332437h7.055689c2.061863 0 3.733334 1.645354 3.733334 3.675s-1.671471 3.675-3.733334 3.675c-1.144242 0-2.198515-.506517-2.905358-1.366795zm-21.49889-21.988028 2.7447 4.005591h-7.025312c-2.061863 0-3.733334-1.645354-3.733334-3.675s1.671471-3.675 3.733334-3.675c1.292412 0 2.140962.385347 2.860275 1.310428.02072.026647.581472.827417 1.420337 2.033981z" fill="url(#a)" transform="translate(-531 -226)"/></svg>

<?xml version="1.0" encoding="UTF-8"?>
<svg width="88px" height="88px" viewBox="0 0 88 88" version="1.1" xmlns="http://www.w3.org/2000/svg" xmlns:xlink="http://www.w3.org/1999/xlink">
    <!-- Generator: Sketch 52.6 (67491) - http://www.bohemiancoding.com/sketch -->
    <title>Fission Badge Solid</title>
    <desc>Created with Sketch.</desc>
    <defs>
        <linearGradient x1="15.635335%" y1="11.8574393%" x2="103.779554%" y2="105.033593%" id="linearGradient-1">
            <stop stop-color="#FF5274" offset="0%"></stop>
            <stop stop-color="#6446FA" offset="100%"></stop>
        </linearGradient>
    </defs>
    <g id="Page-1" stroke="none" stroke-width="1" fill="none" fill-rule="evenodd">
        <g id="Logos-Source" transform="translate(-595.000000, -1337.000000)" fill="url(#linearGradient-1)" fill-rule="nonzero">
            <g id="Badge" transform="translate(64.000000, 1111.000000)">
                <path d="M575,314 C550.699471,314 531,294.300529 531,270 C531,245.699471 550.699471,226 575,226 C599.300529,226 619,245.699471 619,270 C619,294.300529 599.300529,314 575,314 Z M565.95558,284.75 L560.066667,284.75 C558.004804,284.75 556.333333,283.104646 556.333333,281.075 C556.333333,279.045354 558.004804,277.4 560.066667,277.4 L576.445197,277.4 L581.459681,284.718093 L582.778869,286.551732 C584.590114,288.764579 587.161542,290 589.933333,290 C594.940715,290 599,286.004141 599,281.075 C599,276.145859 594.940715,272.15 589.933333,272.15 L579.280418,272.15 L577.122082,269 L589.933333,269 C594.940715,269 599,265.004141 599,260.075 C599,255.145859 594.940715,251.15 589.933333,251.15 L584.493643,251.15 C583.522597,249.28012 581.546499,248 579.266667,248 C576.026596,248 573.4,250.585556 573.4,253.775 C573.4,256.964444 576.026596,259.55 579.266667,259.55 C581.546499,259.55 583.522597,258.26988 584.493643,256.4 L589.933333,256.4 C591.995196,256.4 593.666667,258.045354 593.666667,260.075 C593.666667,262.104646 591.995196,263.75 589.933333,263.75 L573.524856,263.75 L568.758678,256.793964 C567.718499,255.297738 567.276975,254.667229 567.162063,254.519444 C565.400172,252.253541 562.970127,251.15 560.066667,251.15 C555.059285,251.15 551,255.145859 551,260.075 C551,265.004141 555.059285,269 560.066667,269 L570.689371,269 L572.847805,272.15 L560.066667,272.15 C555.059285,272.15 551,276.145859 551,281.075 C551,286.004141 555.059285,290 560.066667,290 L565.341411,290 C566.165084,292.330385 568.387562,294 571,294 C574.313708,294 577,291.313708 577,288 C577,284.686292 574.313708,282 571,282 C568.883994,282 567.023825,283.095363 565.95558,284.75 Z M585.846169,281.732437 L582.877644,277.4 L589.933333,277.4 C591.995196,277.4 593.666667,279.045354 593.666667,281.075 C593.666667,283.104646 591.995196,284.75 589.933333,284.75 C588.789091,284.75 587.734818,284.243483 587.027975,283.383205 L585.846169,281.732437 Z M564.347279,259.744409 L567.091979,263.75 L560.066667,263.75 C558.004804,263.75 556.333333,262.104646 556.333333,260.075 C556.333333,258.045354 558.004804,256.4 560.066667,256.4 C561.359079,256.4 562.207629,256.785347 562.926942,257.710428 C562.947662,257.737075 563.508414,258.537845 564.347279,259.744409 Z" id="Fission-Badge-Solid"></path>
            </g>
        </g>
    </g>
</svg>
